X: 39539
T: Taylor's
R: barndance
M: 4/4
K: Dmajor
|:d>e d>B|A2F>A|B>e (3eee|f>d B>c|
d>e d>B|A>B A>F|E>D E>F|1 D4:|2 D2-D>c||
|:d2 f>d|A>d f>d|e>a f>e|e>d B>c|
[1d2 f>d|A>d f>d|B>e e>f|e2-e>c:|
[2d>e d>B|A>B A>F|E>D E>F|d4||

